X: 1457
T: Tit For Tat
M:C|
L:1/8
N:"collected by Ennis"
B:O'Neill's 1457
Z:"Transcribed by Bob Safranek, rjs@gsp.org"
K:G
(dc)| BGGB AG G2 | D(G (3{A}GFG) A2 (dc) | ((3BcB) BG ((3ABA) AB |1 cABG A2 :|2 cdef g2 ||
(Bd)|((3efe) dB ((3efe) dB | ((3efe) dB A2  Bd |\
     e>(B (3{c}BAB) g>(B (3{c}BAB)| cABG A2 (Bd) |
     ((3efe) dB ((3efe) dB | ((3efe) dB A2 (Bd)| e g2 e gagf | edef g2 |]


